; Generated by KIRI:MOTO
; Wed Sep 26 2018 19:51:19 GMT-0400 (Eastern Daylight Time)
; Bed left:0 right:300 top:175 bottom:0
; --- process ---
; processName = default
; sliceHeight = 0.25
; sliceShells = 2
; sliceShellSpacing = 1
; sliceFillAngle = 45
; sliceFillOverlap = 0.3
; sliceFillSpacing = 1
; sliceFillSparse = 0.5
; sliceSupportEnable = false
; sliceSupportDensity = 0.25
; sliceSupportOffset = 1
; sliceSupportGap = 1
; sliceSupportSize = 10
; sliceSupportArea = 1
; sliceSupportExtra = 0
; sliceSupportSpan = 6
; sliceSolidMinArea = 5
; sliceSolidLayers = 3
; sliceBottomLayers = 2
; sliceTopLayers = 3
; sliceVase = false
; firstSliceHeight = 0.25
; firstLayerRate = 30
; firstLayerFillRate = 40
; firstLayerPrintMult = 1
; outputRaft = false
; outputRaftSpacing = 0.2
; outputTemp = 220
; outputFanMax = 255
; outputBedTemp = 0
; outputFeedrate = 80
; outputFinishrate = 60
; outputSeekrate = 100
; outputShellMult = 1.1
; outputFillMult = 1.2
; outputSparseMult = 1.3
; outputRetractDist = 1
; outputRetractSpeed = 40
; outputRetractDwell = 30
; outputBrimCount = 2
; outputBrimOffset = 2
; outputShortPoly = 15
; outputShortDistance = 0
; outputShortFactor = 0.2
; outputFinishFactor = 0
; sliceMinHeight = 0
; antiBacklash = 2
; zHopDistance = 0
; gcodeKFactor = 0
; gcodePauseLayers = null
; outputCooling = true
; outputClockwise = true
; outputOriginCenter = false
; outputInvertX = false
; outputInvertY = false
; --- startup ---
M104 S220 T0     ; set extruder temperature
M140 S0 T0 ; set bed temperature
G90                 ; set absolute positioning mode
M83                 ; set relative positioning for extruder
M107                ; turn off filament cooling fan
G28                 ; home axes
G29                 ; level bed
G92 X0 Y0 Z0 E0     ; reset all axes positions
G1 X0 Y0 Z0.25 F180 ; move xy to 0,0 and z 0.25mm over bed
G92 E0              ; zero the extruded
M190 S0 T0 ; wait for bed to reach target temp
M109 S220 T0     ; wait for extruder to reach target temp
G1 E15 F200         ; purge 15mm from extruder
G92 E0              ; zero the extruded
G1 F225             ; set feed speed
 ; retract 1
G1 E-1 F2400
; --- layer 0 (0.250 @ 0.00) ---
G1 Z0.250 F6000
G1 X135.675 Y74.589
 ; engage 1
G1 E1 F2400
G4 P30
G1 X135.675 Y100.411 E0.928 F1800
G1 X137.089 Y101.825 E0.072
G1 X162.911 Y101.825 E0.928
G1 X164.325 Y100.411 E0.072
G1 X164.325 Y74.589 E0.928
G1 X162.911 Y73.175 E0.072
G1 X137.089 Y73.175 E0.928
G1 X135.675 Y74.589 E0.072
G1 X135.275 Y74.423 F6000
G1 X135.275 Y100.577 E0.939 F1800
G1 X136.923 Y102.225 E0.084
G1 X163.077 Y102.225 E0.939
G1 X164.725 Y100.577 E0.084
G1 X164.725 Y74.423 E0.939
G1 X163.077 Y72.775 E0.084
G1 X136.923 Y72.775 E0.939
G1 X135.275 Y74.423 E0.084
 ; retract 1
G1 E-1 F2400
G1 X135.275 Y74.423 F6000
G1 X138.483 Y75.975
 ; engage 1
G1 E1 F2400
G4 P30
G1 X138.475 Y99.017 E0.828 F1800
G1 X161.517 Y99.025 E0.828
G1 X161.517 Y75.975 E0.828
G1 X138.483 Y75.975 E0.827
G1 X138.083 Y75.575 F6000
G1 X138.075 Y75.583 E0 F1800
G1 X138.075 Y99.417 E0.856
G1 X138.083 Y99.425 E0
G1 X161.917 Y99.425 E0.856
G1 X161.925 Y99.417 E0
G1 X161.925 Y75.583 E0.856
G1 X161.917 Y75.575 E0
G1 X138.083 Y75.575 E0.856
 ; retract 1
G1 E-1 F2400
G1 X150.000 Y77.318 F6000
 ; engage 1
G1 E1 F2400
G4 P30
G1 X139.818 Y87.500 E0.517 F1800
G1 X150.000 Y97.682 E0.517
G1 X160.182 Y87.500 E0.517
G1 X150.000 Y77.318 E0.517
G1 X150.000 Y76.752 F6000
G1 X139.252 Y87.500 E0.546 F1800
G1 X150.000 Y98.248 E0.546
G1 X160.748 Y87.500 E0.546
G1 X150.000 Y76.752 E0.546
G1 X163.237 Y74.821 F6000
G1 X161.237 Y76.821
G1 X160.671 Y76.255 E0.031 F2400
G1 X160.106 Y76.255 E0.022
G1 X161.237 Y77.386 E0.063
G1 X161.237 Y77.952 E0.022
G1 X159.540 Y76.255 E0.094
G1 X158.974 Y76.255 E0.022
G1 X161.237 Y78.518 E0.125
G1 X161.237 Y79.083 E0.022
G1 X158.409 Y76.255 E0.157
G1 X157.843 Y76.255 E0.022
G1 X161.237 Y79.649 E0.188
G1 X161.237 Y80.215 E0.022
G1 X157.277 Y76.255 E0.219
G1 X156.712 Y76.255 E0.022
G1 X161.237 Y80.780 E0.251
G1 X161.237 Y81.346 E0.022
G1 X156.146 Y76.255 E0.282
G1 X155.580 Y76.255 E0.022
G1 X161.237 Y81.912 E0.313
G1 X161.237 Y82.478 E0.022
G1 X155.015 Y76.255 E0.345
G1 X154.449 Y76.255 E0.022
G1 X161.237 Y83.043 E0.376
G1 X161.237 Y83.609 E0.022
G1 X153.883 Y76.255 E0.408
G1 X153.318 Y76.255 E0.022
G1 X161.237 Y84.175 E0.439
G1 X161.237 Y84.740 E0.022
G1 X152.752 Y76.255 E0.47
G1 X152.186 Y76.255 E0.022
G1 X161.237 Y85.306 E0.502
G1 X161.237 Y85.872 E0.022
G1 X151.621 Y76.255 E0.533
G1 X151.055 Y76.255 E0.022
G1 X161.237 Y86.437 E0.564
G1 X161.237 Y87.003 E0.022
G1 X150.489 Y76.255 E0.596
G1 X149.923 Y76.255 E0.022
G1 X161.237 Y87.569 E0.627
G1 X161.055 Y87.953 E0.013
G1 X160.591 Y88.053 E0.019
G1 X161.237 Y88.700 E0.036
G1 X161.237 Y89.266 E0.022
G1 X160.308 Y88.336 E0.052
G1 X160.025 Y88.619 E0.016
G1 X161.237 Y89.831 E0.067
G1 X161.237 Y90.397 E0.022
G1 X159.742 Y88.902 E0.083
G1 X159.459 Y89.185 E0.016
G1 X161.237 Y90.963 E0.099
G1 X161.237 Y91.529 E0.022
G1 X159.176 Y89.468 E0.114
G1 X158.893 Y89.751 E0.016
G1 X161.237 Y92.094 E0.13
G1 X161.237 Y92.660 E0.022
G1 X158.611 Y90.033 E0.146
G1 X158.328 Y90.316 E0.016
G1 X161.237 Y93.226 E0.161
G1 X161.237 Y93.791 E0.022
G1 X158.045 Y90.599 E0.177
G1 X157.762 Y90.882 E0.016
G1 X161.237 Y94.357 E0.193
G1 X161.237 Y94.923 E0.022
G1 X157.479 Y91.165 E0.208
G1 X157.196 Y91.448 E0.016
G1 X161.237 Y95.488 E0.224
G1 X161.237 Y96.054 E0.022
G1 X156.914 Y91.730 E0.24
G1 X156.631 Y92.013 E0.016
G1 X161.237 Y96.620 E0.255
G1 X161.237 Y97.185 E0.022
G1 X156.348 Y92.296 E0.271
G1 X156.065 Y92.579 E0.016
G1 X161.237 Y97.751 E0.287
G1 X161.237 Y98.317 E0.022
G1 X155.782 Y92.862 E0.302
G1 X155.499 Y93.145 E0.016
G1 X161.099 Y98.745 E0.31
G1 X160.534 Y98.745 E0.022
G1 X155.217 Y93.427 E0.295
G1 X154.934 Y93.710 E0.016
G1 X159.968 Y98.744 E0.279
G1 X159.402 Y98.744 E0.022
G1 X154.651 Y93.993 E0.263
G1 X154.368 Y94.276 E0.016
G1 X158.836 Y98.744 E0.248
G1 X158.270 Y98.744 E0.022
G1 X154.085 Y94.559 E0.232
G1 X153.802 Y94.842 E0.016
G1 X157.704 Y98.744 E0.216
G1 X157.138 Y98.743 E0.022
G1 X153.519 Y95.125 E0.201
G1 X153.237 Y95.407 E0.016
G1 X156.573 Y98.743 E0.185
G1 X156.007 Y98.743 E0.022
G1 X152.954 Y95.690 E0.169
G1 X152.671 Y95.973 E0.016
G1 X155.441 Y98.743 E0.153
G1 X154.875 Y98.743 E0.022
G1 X152.388 Y96.256 E0.138
G1 X152.105 Y96.539 E0.016
G1 X154.309 Y98.743 E0.122
G1 X153.743 Y98.742 E0.022
G1 X151.822 Y96.822 E0.106
G1 X151.540 Y97.104 E0.016
G1 X153.177 Y98.742 E0.091
G1 X152.611 Y98.742 E0.022
G1 X151.257 Y97.387 E0.075
G1 X150.974 Y97.670 E0.016
G1 X152.046 Y98.742 E0.059
G1 X151.480 Y98.742 E0.022
G1 X150.691 Y97.953 E0.044
G1 X150.408 Y98.236 E0.016
G1 X150.914 Y98.741 E0.028
G1 X150.237 Y98.630 E0.022
 ; retract 1
G1 E-1
G1 X151.729 Y74.627 F6000
G1 X149.729 Y76.627
 ; engage 1
G1 E1 F2400
G4 P30
G1 X149.358 Y76.255 E0.021
G1 X148.792 Y76.255 E0.022
G1 X149.447 Y76.909 E0.036
G1 X149.164 Y77.192 E0.016
G1 X148.226 Y76.255 E0.052
G1 X147.661 Y76.255 E0.022
G1 X148.881 Y77.475 E0.068
G1 X148.598 Y77.758 E0.016
G1 X147.095 Y76.255 E0.083
G1 X146.529 Y76.255 E0.022
G1 X148.315 Y78.041 E0.099
G1 X148.032 Y78.324 E0.016
G1 X145.964 Y76.255 E0.115
G1 X145.398 Y76.255 E0.022
G1 X147.749 Y78.607 E0.13
G1 X147.467 Y78.889 E0.016
G1 X144.832 Y76.255 E0.146
G1 X144.267 Y76.255 E0.022
G1 X147.184 Y79.172 E0.162
G1 X146.901 Y79.455 E0.016
G1 X143.701 Y76.255 E0.177
G1 X143.135 Y76.255 E0.022
G1 X146.618 Y79.738 E0.193
G1 X146.335 Y80.021 E0.016
G1 X142.570 Y76.255 E0.209
G1 X142.004 Y76.255 E0.022
G1 X146.052 Y80.304 E0.224
G1 X145.770 Y80.586 E0.016
G1 X141.438 Y76.255 E0.24
G1 X140.872 Y76.255 E0.022
G1 X145.487 Y80.869 E0.256
G1 X145.204 Y81.152 E0.016
G1 X140.307 Y76.255 E0.271
G1 X139.741 Y76.255 E0.022
G1 X144.921 Y81.435 E0.287
G1 X144.638 Y81.718 E0.016
G1 X139.175 Y76.255 E0.303
G1 X138.763 Y76.408 E0.017
G1 X144.355 Y82.001 E0.31
G1 X144.073 Y82.283 E0.016
G1 X138.762 Y76.973 E0.294
G1 X138.762 Y77.539 E0.022
G1 X143.790 Y82.566 E0.279
G1 X143.507 Y82.849 E0.016
G1 X138.762 Y78.104 E0.263
G1 X138.762 Y78.670 E0.022
G1 X143.224 Y83.132 E0.247
G1 X142.941 Y83.415 E0.016
G1 X138.762 Y79.235 E0.232
G1 X138.761 Y79.801 E0.022
G1 X142.658 Y83.698 E0.216
G1 X142.375 Y83.981 E0.016
G1 X138.761 Y80.366 E0.2
G1 X138.761 Y80.932 E0.022
G1 X142.093 Y84.263 E0.185
G1 X141.810 Y84.546 E0.016
G1 X138.761 Y81.497 E0.169
G1 X138.761 Y82.063 E0.022
G1 X141.527 Y84.829 E0.153
G1 X141.244 Y85.112 E0.016
G1 X138.761 Y82.628 E0.138
G1 X138.760 Y83.194 E0.022
G1 X140.961 Y85.395 E0.122
G1 X140.678 Y85.678 E0.016
G1 X138.760 Y83.759 E0.106
G1 X138.760 Y84.325 E0.022
G1 X140.396 Y85.960 E0.091
G1 X140.113 Y86.243 E0.016
G1 X138.760 Y84.890 E0.075
G1 X138.760 Y85.456 E0.022
G1 X139.830 Y86.526 E0.059
G1 X139.547 Y86.809 E0.016
G1 X138.759 Y86.021 E0.044
G1 X138.759 Y86.587 E0.022
G1 X139.264 Y87.092 E0.028
G1 X138.870 Y87.263 E0.01
G1 X138.759 Y87.718 E0.018
G1 X149.782 Y98.741 E0.611
G1 X149.216 Y98.741 E0.022
G1 X138.759 Y88.283 E0.579
G1 X138.758 Y88.849 E0.022
G1 X148.650 Y98.741 E0.548
G1 X148.084 Y98.740 E0.022
G1 X138.758 Y89.414 E0.517
G1 X138.758 Y89.980 E0.022
G1 X147.519 Y98.740 E0.485
G1 X146.953 Y98.740 E0.022
G1 X138.758 Y90.545 E0.454
G1 X138.758 Y91.111 E0.022
G1 X146.387 Y98.740 E0.423
G1 X145.821 Y98.740 E0.022
G1 X138.758 Y91.676 E0.391
G1 X138.757 Y92.242 E0.022
G1 X145.255 Y98.740 E0.36
G1 X144.689 Y98.739 E0.022
G1 X138.757 Y92.807 E0.329
G1 X138.757 Y93.373 E0.022
G1 X144.123 Y98.739 E0.297
G1 X143.557 Y98.739 E0.022
G1 X138.757 Y93.938 E0.266
G1 X138.757 Y94.504 E0.022
G1 X142.992 Y98.739 E0.235
G1 X142.426 Y98.739 E0.022
G1 X138.756 Y95.069 E0.203
G1 X138.756 Y95.635 E0.022
G1 X141.860 Y98.738 E0.172
G1 X141.294 Y98.738 E0.022
G1 X138.756 Y96.200 E0.141
G1 X138.756 Y96.766 E0.022
G1 X140.728 Y98.738 E0.109
G1 X140.162 Y98.738 E0.022
G1 X138.756 Y97.331 E0.078
G1 X138.756 Y97.897 E0.022
G1 X139.596 Y98.738 E0.047
G1 X138.893 Y98.600 E0.023
; --- layer 1 (0.250 @ 0.25) ---
M106 S255
G1 Z0.500 F6000
G1 X138.893 Y98.600
G1 X138.225 Y99.251
G1 X138.249 Y99.275 E0.001 F4800
G1 X161.751 Y99.275 E0.844
G1 X161.775 Y99.251 E0.001
G1 X161.775 Y75.749 E0.844
G1 X161.751 Y75.725 E0.001
G1 X138.249 Y75.725 E0.844
G1 X138.225 Y75.749 E0.001
G1 X138.225 Y99.251 E0.844
G1 X137.825 Y99.417 F6000
G1 X138.083 Y99.675 E0.013 F3600
G1 X161.917 Y99.675 E0.856
G1 X162.175 Y99.417 E0.013
G1 X162.175 Y75.583 E0.856
G1 X161.917 Y75.325 E0.013
G1 X138.083 Y75.325 E0.856
G1 X137.825 Y75.583 E0.013
G1 X137.825 Y99.417 E0.856
 ; retract 1
G1 E-1 F2400
G1 X139.818 Y87.500 F6000
 ; engage 1
G1 E1 F2400
G4 P30
G1 X150.000 Y97.682 E0.517 F3600
G1 X160.182 Y87.500 E0.517
G1 X150.000 Y77.318 E0.517
G1 X139.818 Y87.500 E0.517
G1 X139.252 Y87.500 F6000
G1 X150.000 Y98.248 E0.546 F4800
G1 X160.748 Y87.500 E0.546
G1 X150.000 Y76.752 E0.546
G1 X139.252 Y87.500 E0.546
G1 X141.071 Y74.005 F6000
G1 X139.071 Y76.005
G1 X138.505 Y76.571 E0.031 F4800
G1 X138.505 Y77.136 E0.022
G1 X139.636 Y76.005 E0.063
G1 X140.202 Y76.005 E0.022
G1 X138.505 Y77.702 E0.094
G1 X138.505 Y78.268 E0.022
G1 X140.768 Y76.005 E0.125
G1 X141.333 Y76.005 E0.022
G1 X138.505 Y78.833 E0.157
G1 X138.505 Y79.399 E0.022
G1 X141.899 Y76.005 E0.188
G1 X142.465 Y76.005 E0.022
G1 X138.505 Y79.965 E0.219
G1 X138.505 Y80.530 E0.022
G1 X143.030 Y76.005 E0.251
G1 X143.596 Y76.005 E0.022
G1 X138.505 Y81.096 E0.282
G1 X138.505 Y81.662 E0.022
G1 X144.162 Y76.005 E0.313
G1 X144.728 Y76.005 E0.022
G1 X138.505 Y82.228 E0.345
G1 X138.505 Y82.793 E0.022
G1 X145.293 Y76.005 E0.376
G1 X145.859 Y76.005 E0.022
G1 X138.505 Y83.359 E0.408
G1 X138.505 Y83.925 E0.022
G1 X146.425 Y76.005 E0.439
G1 X146.990 Y76.005 E0.022
G1 X138.505 Y84.490 E0.47
G1 X138.505 Y85.056 E0.022
G1 X147.556 Y76.005 E0.502
G1 X148.122 Y76.005 E0.022
G1 X138.505 Y85.622 E0.533
G1 X138.505 Y86.187 E0.022
G1 X148.687 Y76.005 E0.564
G1 X149.253 Y76.005 E0.022
G1 X138.505 Y86.753 E0.596
G1 X138.505 Y87.319 E0.022
G1 X149.819 Y76.005 E0.627
G1 X150.201 Y76.189 E0.013
G1 X150.300 Y76.656 E0.019
G1 X150.950 Y76.005 E0.036
G1 X151.516 Y76.005 E0.022
G1 X150.582 Y76.938 E0.052
G1 X150.865 Y77.221 E0.016
G1 X152.081 Y76.005 E0.067
G1 X152.647 Y76.005 E0.022
G1 X151.148 Y77.504 E0.083
G1 X151.431 Y77.787 E0.016
G1 X153.213 Y76.005 E0.099
G1 X153.779 Y76.005 E0.022
G1 X151.714 Y78.070 E0.114
G1 X151.997 Y78.353 E0.016
G1 X154.344 Y76.005 E0.13
G1 X154.910 Y76.005 E0.022
G1 X152.279 Y78.635 E0.146
G1 X152.562 Y78.918 E0.016
G1 X155.476 Y76.005 E0.161
G1 X156.041 Y76.005 E0.022
G1 X152.845 Y79.201 E0.177
G1 X153.128 Y79.484 E0.016
G1 X156.607 Y76.005 E0.193
G1 X157.173 Y76.005 E0.022
G1 X153.411 Y79.767 E0.208
G1 X153.694 Y80.050 E0.016
G1 X157.738 Y76.005 E0.224
G1 X158.304 Y76.005 E0.022
G1 X153.977 Y80.332 E0.24
G1 X154.259 Y80.615 E0.016
G1 X158.870 Y76.005 E0.255
G1 X159.435 Y76.005 E0.022
G1 X154.542 Y80.898 E0.271
G1 X154.825 Y81.181 E0.016
G1 X160.001 Y76.005 E0.287
G1 X160.567 Y76.005 E0.022
G1 X155.108 Y81.464 E0.302
G1 X155.391 Y81.747 E0.016
G1 X161.132 Y76.005 E0.318
G1 X161.495 Y76.208 E0.016
G1 X155.674 Y82.030 E0.323
G1 X155.956 Y82.312 E0.016
G1 X161.495 Y76.774 E0.307
G1 X161.495 Y77.339 E0.022
G1 X156.239 Y82.595 E0.291
G1 X156.522 Y82.878 E0.016
G1 X161.495 Y77.905 E0.276
G1 X161.495 Y78.471 E0.022
G1 X156.805 Y83.161 E0.26
G1 X157.088 Y83.444 E0.016
G1 X161.495 Y79.037 E0.244
G1 X161.495 Y79.602 E0.022
G1 X157.371 Y83.727 E0.229
G1 X157.653 Y84.009 E0.016
G1 X161.495 Y80.168 E0.213
G1 X161.495 Y80.734 E0.022
G1 X157.936 Y84.292 E0.197
G1 X158.219 Y84.575 E0.016
G1 X161.495 Y81.299 E0.182
G1 X161.495 Y81.865 E0.022
G1 X158.502 Y84.858 E0.166
G1 X158.785 Y85.141 E0.016
G1 X161.495 Y82.431 E0.15
G1 X161.495 Y82.996 E0.022
G1 X159.068 Y85.424 E0.135
G1 X159.351 Y85.707 E0.016
G1 X161.495 Y83.562 E0.119
G1 X161.495 Y84.128 E0.022
G1 X159.633 Y85.989 E0.103
G1 X159.916 Y86.272 E0.016
G1 X161.495 Y84.693 E0.087
G1 X161.495 Y85.259 E0.022
G1 X160.199 Y86.555 E0.072
G1 X160.482 Y86.838 E0.016
G1 X161.495 Y85.825 E0.056
G1 X161.495 Y86.390 E0.022
G1 X160.765 Y87.121 E0.04
G1 X161.271 Y87.180 E0.011
G1 X161.495 Y87.522 E0.016
G1 X150.022 Y98.995 E0.636
G1 X150.587 Y98.995 E0.022
G1 X161.495 Y88.088 E0.604
G1 X161.495 Y88.653 E0.022
G1 X151.153 Y98.995 E0.573
G1 X151.719 Y98.995 E0.022
G1 X161.495 Y89.219 E0.542
G1 X161.495 Y89.785 E0.022
G1 X152.285 Y98.995 E0.51
G1 X152.850 Y98.995 E0.022
G1 X161.495 Y90.350 E0.479
G1 X161.495 Y90.916 E0.022
G1 X153.416 Y98.995 E0.448
G1 X153.982 Y98.995 E0.022
G1 X161.495 Y91.482 E0.416
G1 X161.495 Y92.047 E0.022
G1 X154.547 Y98.995 E0.385
G1 X155.113 Y98.995 E0.022
G1 X161.495 Y92.613 E0.354
G1 X161.495 Y93.179 E0.022
G1 X155.679 Y98.995 E0.322
G1 X156.244 Y98.995 E0.022
G1 X161.495 Y93.744 E0.291
G1 X161.495 Y94.310 E0.022
G1 X156.810 Y98.995 E0.26
G1 X157.376 Y98.995 E0.022
G1 X161.495 Y94.876 E0.228
G1 X161.495 Y95.441 E0.022
G1 X157.941 Y98.995 E0.197
G1 X158.507 Y98.995 E0.022
G1 X161.495 Y96.007 E0.166
G1 X161.495 Y96.573 E0.022
G1 X159.073 Y98.995 E0.134
G1 X159.638 Y98.995 E0.022
G1 X161.495 Y97.138 E0.103
G1 X161.495 Y97.704 E0.022
G1 X160.204 Y98.995 E0.072
G1 X160.770 Y98.995 E0.022
G1 X161.495 Y98.270 E0.04
G1 X161.415 Y98.915 E0.021
 ; retract 1
G1 E-1 F2400
G1 X140.873 Y85.517 F6000
G1 X138.873 Y87.517
 ; engage 1
G1 E1 F2400
G4 P30
G1 X138.505 Y87.884 E0.02 F4800
G1 X138.505 Y88.450 E0.022
G1 X139.156 Y87.800 E0.036
G1 X139.438 Y88.082 E0.016
G1 X138.505 Y89.016 E0.052
G1 X138.505 Y89.581 E0.022
G1 X139.721 Y88.365 E0.067
G1 X140.004 Y88.648 E0.016
G1 X138.505 Y90.147 E0.083
G1 X138.505 Y90.713 E0.022
G1 X140.287 Y88.931 E0.099
G1 X140.570 Y89.214 E0.016
G1 X138.505 Y91.279 E0.114
G1 X138.505 Y91.844 E0.022
G1 X140.853 Y89.497 E0.13
G1 X141.135 Y89.779 E0.016
G1 X138.505 Y92.410 E0.146
G1 X138.505 Y92.976 E0.022
G1 X141.418 Y90.062 E0.161
G1 X141.701 Y90.345 E0.016
G1 X138.505 Y93.541 E0.177
G1 X138.505 Y94.107 E0.022
G1 X141.984 Y90.628 E0.193
G1 X142.267 Y90.911 E0.016
G1 X138.505 Y94.673 E0.208
G1 X138.505 Y95.238 E0.022
G1 X142.550 Y91.194 E0.224
G1 X142.832 Y91.477 E0.016
G1 X138.505 Y95.804 E0.24
G1 X138.505 Y96.370 E0.022
